src/1-subject/kid-handle.svg

<svg width="1300" height="1000" viewBox="0 0 1300 1000" fill="none" xmlns="http://www.w3.org/2000/svg"><path d="M177.555 579.353s4.261-42.513 17.216-68.967c11.124-21.418 28.973-24.052 57.148-24.371 27.33-.312 49.554 4.05 61.308 24.371 11.414 26.505 15.728 66.942 15.728 66.942l-2.814 78.063.361 25.931c.106 7.668-6.843 13.507-14.378 12.082a1.515 1.515 0 0 1-1.191-1.13l-9.063-37.154-7.972-79.06 1.449-36.61a.9.9 0 1 0-1.791.079l6.569 51.096 2.35 22.875 2.35 41.891 7.441 107.365-1.175 117.755 13.235 6.337a9.997 9.997 0 0 1 5.626 7.968L330.5 900h-69.314L263 888.515a9.817 9.817 0 0 1-4.41-8.32l1.229-95.105-8.495-117.601c-.148-2.059 1.925-3.552 3.83-2.758a2.772 2.772 0 0 1 1.698 2.763l-8.739 117.608-.186 95.141a10.031 10.031 0 0 1-4.409 8.272L245.077 900H177.5c-.3-6 3.196-11.543 8.74-13.857l11.051-4.613-1.692-118.765 5.749-107.64 1.958-41.625 2.35-22.5 5.285-51.275a.51.51 0 0 0-1.011-.12l-5.023 37.213-1.433 84.302-7.995 32.706a.633.633 0 0 1-.498.473c-7.904 1.51-15.203-4.612-15.094-12.658l.362-26.521-2.702-75.767h.008Z" fill="#fff"/><path d="M181.552 582.451s4.038-42.102 16.316-68.3c10.542-21.211 27.458-23.82 54.16-24.136 25.901-.309 46.963 4.011 58.102 24.136 10.817 26.248 14.906 66.294 14.906 66.294l-2.667 77.31 1.068 23.342c.227 4.973-3.727 9.137-8.706 9.167a1.096 1.096 0 0 1-1.072-.841l-7.658-31.937-7.555-78.296-5.112-36.367a.946.946 0 0 0-1.881.213l4.365 50.578 2.227 22.654 2.227 41.487 7.052 106.327-1.113 119.589 14.219 6.11a10 10 0 0 1 6.05 9.021l.02 1.198h-60.004l1.552-16.348a3.713 3.713 0 0 1-3.736-3.748l.889-95.684-9.303-109.397a2.123 2.123 0 0 0-4.229.007l-8.935 109.401-.179 96.244a3.206 3.206 0 0 1-3.228 3.2L240.805 900H181.5c0-3.856 2.204-7.374 5.675-9.055l14.976-7.256-1.603-119.598 5.449-106.6 1.856-41.223 2.227-22.282 4.004-51.002a.911.911 0 0 0-1.813-.188l-4.797 37.144-7.045 77.546-7.584 32.422a.466.466 0 0 1-.454.361c-5.327 0-9.575-4.446-9.333-9.767l1.048-23.016-2.561-75.035h.007Z" fill="#000"/><path d="M242.405 484.258c3.455 1.281 9.906 1.738 11.595 1.742 0 0 7.609-.063 12.04-1.742 4.995-1.892 7.777-3.739 11.149-7.804 2.234-2.693 3.993-7.285 4.825-9.723.371-1.084.623-2.2.816-3.329l3.724-21.821s.453-3.178.446-5.226c-.018-4.87-.684-7.729-2.676-12.194-2.046-4.585-3.836-7.039-7.581-10.451-3.992-3.637-6.87-5.226-12.04-6.94-4.015-1.331-6.464-1.736-10.703-1.77-4.549.152-6.243.435-10.585 1.77-4.346 1.436-8.782 3.98-12.158 6.94-3.376 2.959-5.739 6.462-7.581 10.451-1.843 3.99-2.674 7.841-2.676 12.194 0 1.641.183 3.603.446 5.226l4.422 21.514a23.806 23.806 0 0 0 1.027 3.634c.976 2.585 2.915 7.328 4.808 9.69 2.681 3.346 6.57 6.307 10.702 7.839Z" fill="#fff"/><path d="M244.838 478.516c2.879 1.091 8.255 1.481 9.662 1.484 0 0 6.341-.054 10.034-1.484 4.162-1.612 6.48-3.185 9.29-6.648 1.8-2.217 3.229-5.946 3.949-8.069.361-1.063.603-2.161.788-3.268l3.067-18.37s.378-2.707.372-4.451c-.015-4.149-.57-6.584-2.23-10.387-1.705-3.906-3.196-5.997-6.317-8.904-3.327-3.098-5.726-4.451-10.034-5.911-3.345-1.134-5.387-1.479-8.919-1.508-3.791.13-5.203.371-8.821 1.508-3.621 1.223-7.319 3.39-10.132 5.911-2.813 2.521-4.782 5.505-6.317 8.904-1.536 3.398-2.229 6.678-2.23 10.387 0 1.398.153 3.069.372 4.451l3.636 18.086c.244 1.214.559 2.412.992 3.572.838 2.244 2.396 6.077 3.919 8.02 2.234 2.85 5.475 5.372 8.919 6.677Z" fill="#000"/><path d="M383.074 469.162c0-1.662 5.902-57.127 23.43-93.162 15.049-29.175 39.06-33.545 77.179-33.979 36.975-.426 67.042 5.516 82.944 33.197 15.441 36.104 30.279 89.186 30.279 89.186L648.5 502.5l23.602 6.332c9.235 2.478 14.204 12.493 10.591 21.345a11.915 11.915 0 0 1-11.631 7.397L630 535.5l-79-43L564.504 718l-1.5 156 15.598 6.406a20.001 20.001 0 0 1 12.402 18.501V900h-93.5l1.5-18a9.97 9.97 0 0 1-4.439-8.408L496.004 746l-9.5-125-9 125v128a10 10 0 0 1-4 8l1.5 18H383c0-7.632 4.401-14.58 11.301-17.842l16.203-7.658-2-156.5 6.5-118.5-5.869 22.986a.917.917 0 0 1-.642.657c-12.056 3.376-23.881-6.04-23.292-18.546l1.519-32.227s-3.646-59.37-3.646-103.208Z" fill="#fff"/><path d="M389.07 472.47s5.44-56.683 21.98-91.955c14.201-28.557 36.989-32.07 72.96-32.495 34.892-.416 63.264 5.4 78.27 32.495 14.572 35.339 28.22 86.985 28.22 86.985l55 40.5 26.724 7.738a7.835 7.835 0 0 1-2.729 15.343l-36.777-2.588L557.5 487.5l-17.74-68.475a1.342 1.342 0 0 0-2.634.452L543 487.5l3 30.5 3 55.855 9.5 143.153-1.5 161.007 21.216 9.112a10.001 10.001 0 0 1 6.052 9.022l.064 3.851H503.5l2.09-22.01a5.003 5.003 0 0 1-5.033-5.05l1.198-128.82-12.532-147.284a2.86 2.86 0 0 0-5.698.01L471.49 744.135l-.242 129.575a4.317 4.317 0 0 1-4.348 4.31l1.991 21.98H389c0-5.192 2.968-9.927 7.641-12.189l20.179-9.771-2.16-161.02L422 573.5l2.5-55.5 3-30 5.395-68.664a1.228 1.228 0 0 0-2.442-.254l-6.463 50.008-9.49 104.403-10.216 43.651a.63.63 0 0 1-.613.486c-7.175 0-12.898-5.989-12.572-13.157l1.411-30.98-3.45-101.023h.01Z" fill="#000"/><path d="M473.324 340c3.926 1.471 11.257 1.995 13.176 2 0 0 8.646-.072 13.682-2 5.676-2.172 8.837-4.293 12.669-8.96 2.619-3.188 4.662-8.697 5.57-11.42.358-1.076.606-2.181.795-3.3l4.277-25.32s.516-3.649.507-6c-.02-5.591-.777-8.874-3.041-14-2.325-5.265-4.358-8.083-8.614-12-4.537-4.176-7.807-6-13.683-7.968-4.561-1.528-7.345-1.993-12.162-2.032-5.17.175-7.095.5-12.029 2.032-4.938 1.649-9.979 4.57-13.816 7.968-3.836 3.398-6.521 7.42-8.614 12-2.094 4.58-3.039 9.002-3.041 14 .001 1.885.208 4.137.507 6l5.084 24.993a24.33 24.33 0 0 0 1.005 3.605c1.072 2.894 3.346 8.603 5.566 11.402 3.047 3.841 7.466 7.241 12.162 9Z" fill="#fff"/><path d="M475.432 334.258c3.298 1.281 9.456 1.738 11.068 1.742 0 0 7.263-.063 11.493-1.742 4.767-1.892 7.423-3.739 10.642-7.804 2.15-2.714 3.839-7.36 4.625-9.782.339-1.045.572-2.118.748-3.202l3.566-21.889s.433-3.178.426-5.226c-.017-4.87-.652-7.729-2.554-12.194-1.953-4.585-3.662-7.039-7.237-10.451-3.811-3.637-6.558-5.226-11.493-6.94-3.832-1.331-6.17-1.736-10.216-1.77-4.342.152-5.96.435-10.104 1.77-4.148 1.436-8.383 3.98-11.605 6.94-3.223 2.959-5.478 6.462-7.237 10.451-1.759 3.99-2.552 7.841-2.554 12.194 0 1.641.175 3.603.426 5.226l4.234 21.584c.234 1.19.535 2.363.946 3.504.924 2.57 2.789 7.37 4.61 9.75 2.56 3.346 6.272 6.307 10.216 7.839Z" fill="#000"/></svg>

<svg width="1300" height="1000" viewBox="0 0 1300 1000" fill="none" xmlns="http://www.w3.org/2000/svg">
<path d="M177.555 579.353C177.555 579.353 181.816 536.84 194.771 510.386C205.895 488.968 223.744 486.334 251.919 486.015C279.249 485.703 301.473 490.065 313.227 510.386C324.641 536.891 328.955 577.328 328.955 577.328L326.141 655.391L326.502 681.322C326.608 688.99 319.659 694.829 312.124 693.404C311.54 693.294 311.074 692.852 310.933 692.274L301.87 655.12L293.898 576.06L295.347 539.45C295.367 538.94 294.959 538.515 294.448 538.515C293.906 538.515 293.487 538.992 293.556 539.529L300.125 590.625L302.475 613.5L304.825 655.391L312.266 762.756L311.091 880.511L324.326 886.848C327.458 888.347 329.587 891.363 329.952 894.816L330.5 900H261.186L263 888.515C260.209 886.674 258.547 883.538 258.59 880.195L259.819 785.09L251.324 667.489C251.176 665.43 253.249 663.937 255.154 664.731C256.256 665.19 256.94 666.304 256.852 667.494L248.113 785.102L247.927 880.243C247.921 883.555 246.26 886.659 243.518 888.515L245.077 900H177.5C177.2 894 180.696 888.457 186.24 886.143L197.291 881.53L195.599 762.765L201.348 655.125L203.306 613.5L205.656 591L210.941 539.725C210.956 539.582 210.909 539.439 210.813 539.332C210.522 539.01 209.988 539.175 209.93 539.605L204.907 576.818L203.474 661.12L195.479 693.826C195.42 694.068 195.226 694.253 194.981 694.299C187.077 695.809 179.778 689.687 179.887 681.641L180.249 655.12L177.547 579.353H177.555Z" fill="white"/>
<path d="M181.552 582.451C181.552 582.451 185.59 540.349 197.868 514.151C208.41 492.94 225.326 490.331 252.028 490.015C277.929 489.706 298.991 494.026 310.13 514.151C320.947 540.399 325.036 580.445 325.036 580.445L322.369 657.755L323.437 681.097C323.664 686.07 319.71 690.234 314.731 690.264C314.222 690.267 313.778 689.919 313.659 689.423L306.001 657.486L298.446 579.19L293.334 542.823C293.269 542.356 292.869 542.008 292.397 542.008C291.841 542.008 291.405 542.483 291.453 543.036L295.818 593.614L298.045 616.268L300.272 657.755L307.324 764.082L306.211 883.671L320.43 889.781C324.046 891.335 326.414 894.866 326.48 898.802L326.5 900H266.496L268.048 883.652C265.974 883.664 264.292 881.977 264.312 879.904L265.201 784.22L255.898 674.823C255.804 673.725 254.886 672.881 253.783 672.881C252.679 672.881 251.759 673.729 251.669 674.83L242.734 784.231L242.555 880.475C242.551 882.252 241.104 883.687 239.327 883.675L240.805 900H181.5C181.5 896.144 183.704 892.626 187.175 890.945L202.151 883.689L200.548 764.091L205.997 657.491L207.853 616.268L210.08 593.986L214.084 542.984C214.126 542.451 213.703 541.997 213.168 542.001C212.713 542.005 212.33 542.344 212.271 542.796L207.474 579.94L200.429 657.486L192.845 689.908C192.796 690.119 192.608 690.269 192.391 690.269C187.064 690.269 182.816 685.823 183.058 680.502L184.106 657.486L181.545 582.451H181.552Z" fill="black"/>
<path d="M242.405 484.258C245.86 485.539 252.311 485.996 254 486C254 486 261.609 485.937 266.04 484.258C271.035 482.366 273.817 480.519 277.189 476.454C279.423 473.761 281.182 469.169 282.014 466.731C282.385 465.647 282.637 464.531 282.83 463.402L286.554 441.581C286.554 441.581 287.007 438.403 287 436.355C286.982 431.485 286.316 428.626 284.324 424.161C282.278 419.576 280.488 417.122 276.743 413.71C272.751 410.073 269.873 408.484 264.703 406.77C260.688 405.439 258.239 405.034 254 405C249.451 405.152 247.757 405.435 243.415 406.77C239.069 408.206 234.633 410.75 231.257 413.71C227.881 416.669 225.518 420.172 223.676 424.161C221.833 428.151 221.002 432.002 221 436.355C221 437.996 221.183 439.958 221.446 441.581L225.868 463.095C226.122 464.331 226.449 465.549 226.895 466.729C227.871 469.314 229.81 474.057 231.703 476.419C234.384 479.765 238.273 482.726 242.405 484.258Z" fill="white"/>
<path d="M244.838 478.516C247.717 479.607 253.093 479.997 254.5 480C254.5 480 260.841 479.946 264.534 478.516C268.696 476.904 271.014 475.331 273.824 471.868C275.624 469.651 277.053 465.922 277.773 463.799C278.134 462.736 278.376 461.638 278.561 460.531L281.628 442.161C281.628 442.161 282.006 439.454 282 437.71C281.985 433.561 281.43 431.126 279.77 427.323C278.065 423.417 276.574 421.326 273.453 418.419C270.126 415.321 267.727 413.968 263.419 412.508C260.074 411.374 258.032 411.029 254.5 411C250.709 411.13 249.297 411.371 245.679 412.508C242.058 413.731 238.36 415.898 235.547 418.419C232.734 420.94 230.765 423.924 229.23 427.323C227.694 430.721 227.001 434.001 227 437.71C227 439.108 227.153 440.779 227.372 442.161L231.008 460.247C231.252 461.461 231.567 462.659 232 463.819C232.838 466.063 234.396 469.896 235.919 471.839C238.153 474.689 241.394 477.211 244.838 478.516Z" fill="black"/>
<path d="M383.074 469.162C383.074 467.5 388.976 412.035 406.504 376C421.553 346.825 445.564 342.455 483.683 342.021C520.658 341.595 550.725 347.537 566.627 375.218C582.068 411.322 596.906 464.404 596.906 464.404L648.5 502.5L672.102 508.832C681.337 511.31 686.306 521.325 682.693 530.177C680.78 534.863 676.116 537.829 671.062 537.574L630 535.5L551 492.5L564.504 718L563.004 874L578.602 880.406C586.105 883.488 591.004 890.796 591.004 898.907V900H497.504L499.004 882C496.197 880.129 494.527 876.965 494.565 873.592L496.004 746L486.504 621L477.504 746V874C477.504 877.148 476.022 880.111 473.504 882L475.004 900H383C383 892.368 387.401 885.42 394.301 882.158L410.504 874.5L408.504 718L415.004 599.5L409.135 622.486C409.054 622.804 408.809 623.055 408.493 623.143C396.437 626.519 384.612 617.103 385.201 604.597L386.72 572.37C386.72 572.37 383.074 513 383.074 469.162Z" fill="white"/>
<path d="M389.07 472.47C389.07 472.47 394.51 415.787 411.05 380.515C425.251 351.958 448.039 348.445 484.01 348.02C518.902 347.604 547.274 353.42 562.28 380.515C576.852 415.854 590.5 467.5 590.5 467.5L645.5 508L672.224 515.738C675.773 516.766 678.121 520.133 677.86 523.818C677.555 528.133 673.81 531.384 669.495 531.081L632.718 528.493L557.5 487.5L539.76 419.025C539.607 418.434 539.073 418.02 538.462 418.02C537.676 418.02 537.058 418.694 537.126 419.477L543 487.5L546 518L549 573.855L558.5 717.008L557 878.015L578.216 887.127C581.833 888.681 584.202 892.212 584.268 896.149L584.332 900H503.5L505.59 877.99C502.797 878.007 500.531 875.733 500.557 872.94L501.755 744.12L489.223 596.836C489.097 595.357 487.859 594.22 486.374 594.22C484.886 594.22 483.647 595.363 483.525 596.846L471.49 744.135L471.248 873.71C471.244 876.104 469.293 878.037 466.9 878.02L468.891 900H389C389 894.808 391.968 890.073 396.641 887.811L416.82 878.04L414.66 717.02L422 573.5L424.5 518L427.5 488L432.895 419.336C432.951 418.617 432.381 418.005 431.66 418.011C431.047 418.016 430.531 418.474 430.453 419.082L423.99 469.09L414.5 573.493L404.284 617.144C404.217 617.429 403.963 617.63 403.671 617.63C396.496 617.63 390.773 611.641 391.099 604.473L392.51 573.493L389.06 472.47H389.07Z" fill="black"/>
<path d="M473.324 340C477.25 341.471 484.581 341.995 486.5 342C486.5 342 495.146 341.928 500.182 340C505.858 337.828 509.019 335.707 512.851 331.04C515.47 327.852 517.513 322.343 518.421 319.62C518.779 318.544 519.027 317.439 519.216 316.32L523.493 291C523.493 291 524.009 287.351 524 285C523.98 279.409 523.223 276.126 520.959 271C518.634 265.735 516.601 262.917 512.345 259C507.808 254.824 504.538 253 498.662 251.032C494.101 249.504 491.317 249.039 486.5 249C481.33 249.175 479.405 249.5 474.471 251.032C469.533 252.681 464.492 255.602 460.655 259C456.819 262.398 454.134 266.42 452.041 271C449.947 275.58 449.002 280.002 449 285C449.001 286.885 449.208 289.137 449.507 291L454.591 315.993C454.84 317.218 455.162 318.425 455.596 319.598C456.668 322.492 458.942 328.201 461.162 331C464.209 334.841 468.628 338.241 473.324 340Z" fill="white"/>
<path d="M475.432 334.258C478.73 335.539 484.888 335.996 486.5 336C486.5 336 493.763 335.937 497.993 334.258C502.76 332.366 505.416 330.519 508.635 326.454C510.785 323.74 512.474 319.094 513.26 316.672C513.599 315.627 513.832 314.554 514.008 313.47L517.574 291.581C517.574 291.581 518.007 288.403 518 286.355C517.983 281.485 517.348 278.626 515.446 274.161C513.493 269.576 511.784 267.122 508.209 263.71C504.398 260.073 501.651 258.484 496.716 256.77C492.884 255.439 490.546 255.034 486.5 255C482.158 255.152 480.54 255.435 476.396 256.77C472.248 258.206 468.013 260.75 464.791 263.71C461.568 266.669 459.313 270.172 457.554 274.161C455.795 278.151 455.002 282.002 455 286.355C455 287.996 455.175 289.958 455.426 291.581L459.66 313.165C459.894 314.355 460.195 315.528 460.606 316.669C461.53 319.239 463.395 324.039 465.216 326.419C467.776 329.765 471.488 332.726 475.432 334.258Z" fill="black"/>
</svg>
